!!!OTL: Die beiden Waisenkinder
!!!OTL-incipit:Es waren zwei Waisenkinder,
!!!ARE: Europa, Mitteleuropa, Deutschland (BRD), Hessen
!!!YOR: 5, S. 310
!!    ????
!!!SCT: Q0118C
!!!TXL: @@DE
!!!YEM: Copyright 1995, estate of Helmut Schaffrath.
**kern	**text
*ICvox	*
*M3/4	*
*k[f#]	*
*G:	*
!LO:TX:a:t=F Hessen	!
{4d	Es
=1	=1
4.g	wa-
8g	-ren
4g	ʒwei
=2	=2
2g	Wai-
4a	-sen-
=3	=3
4b	-kin-
4b	-der,
4r	.
=4	=4
2r}	.
{4dd	die
=5	=5
4.dd	gin-
8dd	-gen
4dd	ʒum
=6	=6
2cc	Fried-
4a	-hof
=7	=7
2b	hin,
4r	.
=8	=8
2r}	.
{4dd	sie
=9	=9
4.b	gin-
8b	-gen
4b	ʒum
=10	=10
4b	Gra-
4cc	-be
4dd	der
=11	=11
2.ee	Mut-
=12	=12
(4ee	-ter
4dd)}	.
{4cc	und
=13	=13
4.dd	rie-
8dd	-fen
4dd	mit
=14	=14
2dd	lau-
4cc	-ter
=15	=15
2b	Stimm'.
4r	.
=16	=16
2r}	.
{4dd	sie
=17	=17
4.b	gin-
8b	-gen
4b	ʒum
=18	=18
4b	Gra-
4cc	-be
4dd	der
=19	=19
2.ee	Mut-
=20	=20
(4ee	-ter
4dd)}	.
{4cc	und
=21	=21
4.dd	rie-
8dd	-fen
4dd	mit
=22	=22
2dd	lau-
4cc	-ter
=23	=23
2b}	Stimm'.
==	==
!!!AGN: Ballade, Waise, boese Stiefmutter, Klage am Grab, Geist
!!!ONB: ESAC (Essen Associative Code) Database: BALLADE
!!!AMT: simple triple
!!!AIN: vox
!!!EED: Helmut Schaffrath
!!!EEV: 1.0
!!!source: Deutsche Volkslieder mit ihren Melodien Balladen. Herausgegeben vom Deutschen Volksliedarchiv. Fünfter Teil. Freiburg/Breisgau 1965.
!!!page: 310
!!!ENC: Anna Maria Matuszewska
!!!EEV: 2025/03/05
*-	*-
